t68v127r1r1r1r1r1r1r1r2.r8<a16a16f+8a16b4&b16f+8a8>f+8d8e8d2&d8.d8d16<b8a8a16g8.a8a8.>d8d16<b8a16a8.g8a8b4a16a16f+8a16b4&b16f+8a8>f+8.d16e8d2&d8.d8d16<b8a8a16a8.a8b4&b16a16a16g16b2&b8b16>c+16d16e16e4<a8>f+4d16<b16>d16e16f+8f+8.e16e1f+16f+16f+16f+8.e16e2&e16e16e16e16a8.g16f+8e16d8e8<b16>d16<b8a16b16>f+8e16d16d16<a16>e8d8.<a16>f+16f+16f+16f+16f+8e16e4.&e16e8e16e16e16e16a8g16f+16e8f+16e16d8<b16>d16<b8a16b16>f+8e16d16d16<a16>e8d1&d2.&d8<a16a16f+8a16b4&b16f+16a8>f+8.d8e8d2&d8.d8d16<b8a8a8f+16a8.f+8.>d8d16<b8a8a16a8.>f+8e4e16d16e8d16d4d16e8d8g8.a16f+8e16d2&d16<b16>c+16d16e16e4a8f+4d16<b16>d16e16f+16f+8.e8e8.d16f+8e16d16f+8e16d4&d16f+16f+16f+16f+8.e16e2&e16e16e16e16a8.g16f+8e16d8e8<b16>d16<b8a16b16>f+8e16d16d16<a16>e8d8.<a16>f+16f+16f+16f+16f+8e16e4.&e16e8e16e16e16e16a8g16f+16e8f+16e16d8<b16>d16<b8a16b16>f+8e16d16d16<a16>e8d2,r1r1r1r1r1r1r1r1d8a16d4&d16c+8a8a8>d8<f+8>d4.<f+16a16b8.b8b16d8a8d16g8.d8a8.>d8d16<d8a16a8.g8d8b4a16a16d8a16d4&d16c+8a8a8.>d16<f+8>d8<f+16a16b8f+16a16b8.>d8d16<b8a8a16a8.a8b4&b16a16d16g16b8e16a16b8e16a16b8b16>c+16d16e16<a4a8g4>d16<b16>d16e16f+8<a8.>e16<a4a8a8a16a16a16a16a4>f+16f+16f+16<a8.>e16c+4&c+16<g4>e16e16e16d8.g16<b8>e16d8<g8b16>d16<g8a16b16g8>e16d16d16<a16a8f+8.a16>f+16f+16f+16f+16<a2g8.>e16e16e16e16e16<b8>g16f+16<b8>f+16e16<g8b16>d16<g8a16b16g8>e16d16d16<a16a1&a1a16a16f+8.d4&d16f+16a8a8.>d8<f+8>d4.<f+16a16b8.>d8d16<d8a8a8f+16d8.f+8.>d8d16<d8a8d16a8.g8>e4e16d16e8d16d4d16<a8>d8c+1&c+8d16e16<a4>a8<b4>d16<b16>d16e16f+16<a8.>e8d8.d16<a8>e16d16d8e16d16<a4>f+16f+16f+16<a8.>e16c+1&c+1&c+4&c+16<f+8.a16>f+16f+16f+16f+16<a2g8.>e16e16e16e16e16<b8>g16f+16<b8>f+16e16<g8b16>d16<g8a16b16g8>e16d16d16<a16a8f+4,o2b2>c+2e1<b2>c+2e2f+8e16d16c+16d16e8<b2>c+2e4.<b8>f+8e16d16c+16d16e8<b2>c+2e1d2c+2<b1>g2f+2d1d2c+2<b1>g2f+2e1f+2g2a8a8a8a8a8e8a16a16a16a16d4.d8c+2e4.e8e4.e16f+16g4.g8g4a4d4.d8c+2e4.e8e4.e16f+16g4.g8g4a4d4.d8c+4.d16e16<b1>d4.d8c+2<b4b8.>f+16b16f+16b4.g4.g8f+2e4.e8e2d4.d8c+2<b4.>b16f+16<b8b4.>f+4.f+8g2a8a8a8a8a8a8a8a8d4.d8c+2e4.e8e4.e16f+16g4.g8g4a4d4.